src/lib/packages/icons/src/assets/filled/trend-down-square.svg

<svg width="24" height="24" viewBox="0 0 24 24" fill="none" xmlns="http://www.w3.org/2000/svg">
<path d="M17.625 3H6.375C4.125 3 3 4.125 3 6.375V17.625C3 19.875 4.125 21 6.375 21H17.625C19.875 21 21 19.875 21 17.625V6.375C21 4.125 19.875 3 17.625 3ZM8.75 17C8.75 17.414 8.414 17.75 8 17.75C7.586 17.75 7.25 17.414 7.25 17V12C7.25 11.586 7.586 11.25 8 11.25C8.414 11.25 8.75 11.586 8.75 12V17ZM12.75 17C12.75 17.414 12.414 17.75 12 17.75C11.586 17.75 11.25 17.414 11.25 17V14C11.25 13.586 11.586 13.25 12 13.25C12.414 13.25 12.75 13.586 12.75 14V17ZM16.75 17C16.75 17.414 16.414 17.75 16 17.75C15.586 17.75 15.25 17.414 15.25 17V15.5C15.25 15.086 15.586 14.75 16 14.75C16.414 14.75 16.75 15.086 16.75 15.5V17ZM16.75 10.3201C16.75 10.3301 16.745 10.3379 16.744 10.3479C16.741 10.4359 16.726 10.524 16.692 10.606C16.658 10.688 16.607 10.76 16.548 10.824C16.541 10.832 16.539 10.8421 16.531 10.8491C16.531 10.8491 16.531 10.8491 16.53 10.8491C16.461 10.9181 16.378 10.973 16.286 11.011C16.194 11.049 16.097 11.0691 15.999 11.0691H13.799C13.385 11.0691 13.049 10.7331 13.049 10.3191C13.049 9.90509 13.385 9.56909 13.799 9.56909H14.184L12.385 7.77588L11.098 9.04907C10.514 9.62807 9.56497 9.62497 8.98297 9.04297L7.46899 7.52905C7.17599 7.23605 7.17599 6.76102 7.46899 6.46802C7.76199 6.17502 8.23703 6.17502 8.53003 6.46802L10.044 7.98193L11.331 6.70898C11.916 6.13098 12.864 6.13389 13.444 6.71289L15.25 8.51196V8.11792C15.25 7.70392 15.586 7.36792 16 7.36792C16.414 7.36792 16.75 7.70392 16.75 8.11792V10.3201Z" fill="currentColor"/>
</svg>

<svg xmlns="http://www.w3.org/2000/svg" width="24" height="24" fill="none"><path fill="currentColor" d="M17.625 3H6.375C4.125 3 3 4.125 3 6.375v11.25C3 19.875 4.125 21 6.375 21h11.25C19.875 21 21 19.875 21 17.625V6.375C21 4.125 19.875 3 17.625 3ZM8.75 17a.75.75 0 0 1-1.5 0v-5a.75.75 0 0 1 1.5 0v5Zm4 0a.75.75 0 0 1-1.5 0v-3a.75.75 0 0 1 1.5 0v3Zm4 0a.75.75 0 0 1-1.5 0v-1.5a.75.75 0 0 1 1.5 0V17Zm0-6.68c0 .01-.005.018-.006.028a.738.738 0 0 1-.052.258.745.745 0 0 1-.144.218c-.007.008-.009.018-.017.025h-.001a.749.749 0 0 1-.531.22h-2.2a.75.75 0 0 1 0-1.5h.385l-1.799-1.793-1.287 1.273a1.502 1.502 0 0 1-2.115-.006L7.469 7.529A.75.75 0 1 1 8.53 6.468l1.514 1.514 1.287-1.273a1.503 1.503 0 0 1 2.113.004l1.806 1.799v-.394a.75.75 0 0 1 1.5 0v2.202Z"/></svg>
